img/on-2.svg

<svg width="40" height="40" viewBox="0 0 40 40" fill="none" xmlns="http://www.w3.org/2000/svg">
<rect width="40" height="40" rx="20" fill="#F5E9EA"/>
<g clip-path="url(#clip0_1239_194)">
<path d="M32.7297 22.2003C31.5297 24.6709 28.9885 26.4356 26.0238 26.4356C22.0003 26.4356 18.6121 23.1179 18.6121 19.0238C18.6121 15.0003 21.8591 11.6121 26.0238 11.6121C28.0003 11.6121 29.9062 12.3885 31.3179 13.8003C32.165 14.6474 32.7297 15.6356 33.0826 16.6944L34.7062 15.0709C34.2121 14.0121 33.5768 13.0944 32.7297 12.2474C30.8944 10.4827 28.4944 9.42383 25.9532 9.42383C20.7297 9.49442 16.4238 13.8003 16.4238 19.0238C16.4238 24.3179 20.7297 28.5532 25.9532 28.5532C30.8944 28.5532 34.8474 24.8121 35.4121 20.2238C34.3532 21.2121 33.9297 22.2003 32.7297 22.2003Z" fill="#DA2B36"/>
<path d="M38.7293 31.7293C37.6705 32.7881 35.9058 32.7881 34.7764 31.7293L31.5293 28.4822C32.3058 27.9881 33.0822 27.4234 33.7175 26.7881C34.4234 26.0822 34.9881 25.3764 35.4822 24.5293L38.7293 27.7764C39.7881 28.8352 39.8587 30.5999 38.7293 31.7293Z" fill="#DA2B36"/>
<path d="M38.0944 15.6355L36.7532 16.9767L33.0826 20.5767C32.8002 20.8591 32.3767 20.8591 32.0944 20.5767L29.7649 18.2473L26.0944 21.9179C25.812 22.2003 25.3885 22.2003 25.1061 21.9179L23.4826 20.2944L21.1532 22.6238C20.8708 22.2708 20.5885 21.7767 20.3767 21.3532L22.9885 18.8826C23.2708 18.6003 23.6944 18.6003 23.9767 18.8826L25.6002 20.5061L29.2708 16.8355C29.5532 16.5532 29.9767 16.5532 30.2591 16.8355L31.9532 18.5297L32.5885 19.165L36.3296 15.4238L37.1061 14.6473C37.3885 14.365 37.812 14.365 38.0944 14.6473C38.3767 14.9297 38.3767 15.3532 38.0944 15.6355Z" fill="#C9BA81"/>
</g>
<defs>
<clipPath id="clip0_1239_194">
<rect width="24" height="24" fill="white" transform="translate(16 9)"/>
</clipPath>
</defs>
</svg>

<svg width="40" height="40" fill="none" xmlns="http://www.w3.org/2000/svg"><rect width="40" height="40" rx="20" fill="#F5E9EA"/><g clip-path="url(#a)"><path d="M32.73 22.2c-1.2 2.47-3.741 4.236-6.706 4.236-4.024 0-7.412-3.318-7.412-7.412 0-4.024 3.247-7.412 7.412-7.412a7.48 7.48 0 0 1 5.294 2.188 7.295 7.295 0 0 1 1.765 2.894l1.623-1.623a9.719 9.719 0 0 0-1.976-2.824c-1.836-1.764-4.236-2.823-6.777-2.823-5.223.07-9.53 4.376-9.53 9.6 0 5.294 4.307 9.53 9.53 9.53 4.941 0 8.894-3.742 9.46-8.33-1.06.988-1.483 1.976-2.683 1.976ZM38.73 31.73c-1.06 1.058-2.824 1.058-3.954 0l-3.247-3.248c.777-.494 1.553-1.059 2.189-1.694a10.837 10.837 0 0 0 1.764-2.259l3.247 3.247a2.79 2.79 0 0 1 0 3.953Z" fill="#DA2B36"/><path d="m38.094 15.636-1.34 1.34-3.671 3.6a.682.682 0 0 1-.989 0l-2.33-2.329-3.67 3.67a.682.682 0 0 1-.988 0l-1.623-1.623-2.33 2.33c-.282-.353-.564-.847-.776-1.27l2.611-2.471a.682.682 0 0 1 .989 0l1.623 1.623 3.67-3.67a.683.683 0 0 1 .99 0l1.693 1.694.636.635 3.74-3.741.777-.777a.683.683 0 0 1 .988 0 .682.682 0 0 1 0 .989Z" fill="#C9BA81"/></g><defs><clipPath id="a"><path fill="#fff" transform="translate(16 9)" d="M0 0h24v24H0z"/></clipPath></defs></svg>
